packages/icons/src/components/Icon/assets/small-outline/pencil.svg

<svg width="16" height="16" viewBox="0 0 16 16" fill="none" xmlns="http://www.w3.org/2000/svg">
<path fill-rule="evenodd" clip-rule="evenodd" d="M13.5081 2.4919C13.2689 2.2527 12.8811 2.2527 12.6419 2.4919L11.9641 3.16973L12.8303 4.03594L13.5081 3.3581C13.7473 3.11891 13.7473 2.73109 13.5081 2.4919ZM11.9022 4.96401L11.036 4.09781L5.45661 9.67719C5.17597 9.95782 4.96968 10.304 4.85637 10.6843L4.66151 11.3385L5.31567 11.1436C5.69604 11.0303 6.04218 10.824 6.32282 10.5434L11.9022 4.96401ZM11.7138 1.56382C12.4656 0.81206 13.6844 0.81206 14.4362 1.56382C15.1879 2.31558 15.1879 3.53442 14.4362 4.28618L7.2509 11.4715C6.81606 11.9063 6.27973 12.2259 5.69037 12.4015L3.8736 12.9427C3.64266 13.0115 3.3926 12.9482 3.22221 12.7778C3.05182 12.6074 2.98852 12.3573 3.05731 12.1264L3.5985 10.3096C3.77405 9.72027 4.09369 9.18394 4.52853 8.74911L10.5719 2.70569L11.036 3.16973L10.5719 2.70569L11.7138 1.56382ZM3.17875 4.84999C2.70033 4.84999 2.3125 5.23783 2.3125 5.71624V12.8212C2.3125 13.2997 2.70033 13.6875 3.17875 13.6875H10.2837C10.7622 13.6875 11.15 13.2997 11.15 12.8212V9.60708C11.15 9.24464 11.4438 8.95083 11.8062 8.95083C12.1687 8.95083 12.4625 9.24464 12.4625 9.60708V12.8212C12.4625 14.0245 11.487 15 10.2837 15H3.17875C1.97546 15 1 14.0245 1 12.8212V5.71624C1 4.51295 1.97546 3.53749 3.17875 3.53749H6.39292C6.75535 3.53749 7.04917 3.83131 7.04917 4.19374C7.04917 4.55618 6.75535 4.84999 6.39292 4.84999H3.17875Z" fill="black"/>
</svg>

<svg xmlns="http://www.w3.org/2000/svg" width="16" height="16" fill="none" viewBox="0 0 16 16">
    <path d="M13.508 2.492a.61.61 0 0 0-.866 0l-.678.678.866.866.678-.678a.61.61 0 0 0 0-.866m-1.606 2.472-.866-.866-5.58 5.58c-.28.28-.486.626-.6 1.006l-.194.655.654-.195c.38-.114.726-.32 1.007-.6zm-.188-3.4a1.925 1.925 0 0 1 2.722 2.722l-7.185 7.186a3.7 3.7 0 0 1-1.56.93l-1.817.54a.656.656 0 0 1-.817-.816L3.6 10.31c.175-.59.495-1.126.93-1.56l6.043-6.044.464.464-.464-.464zM3.179 4.85a.866.866 0 0 0-.866.866v7.105c0 .479.387.867.866.867h7.105a.866.866 0 0 0 .866-.867V9.607a.656.656 0 1 1 1.313 0v3.214A2.18 2.18 0 0 1 10.283 15H3.18A2.18 2.18 0 0 1 1 12.821V5.716c0-1.203.975-2.179 2.179-2.179h3.214a.656.656 0 0 1 0 1.313z" clip-rule="evenodd"/>
</svg>
